X:0760
T:Mrs. Forbes of Shivers' Fancy.
M:2/4
L:1/8
Q:1/4=144
I: :| || DC
P:ABA
Z:Jack Campin * www.campin.me.uk * 2009
K:D
P:A
d|d2Af|d2AA|BB cB/c/|d2AA|d2Af|d2AA|BB cB/c/|d2z:|
P:B
a|agfe|dddd|ee`ef   |e3 a|agfe|ddde|fe`f^g  |a3 ||

